app/images/outsource/procedures.svg

<svg xmlns="http://www.w3.org/2000/svg" width="223.376" height="69.479" viewBox="0 0 223.376 69.479"><path fill="#4A4A4A" d="M30.684 65.296l5.236-.736v-19.2l5.934-.834v19.2l5.236-.736V38.555L30.684 40.86v24.436zm20.42-2.87l5.236-.736v-7.33l11.17-1.57V35.685L51.104 37.99v24.436zM56.34 42.49l5.934-.834v6.633l-5.934.833V42.49zm15.01 17.09l16.406-2.306V32.84L71.35 35.145V59.58zm5.236-19.935l5.935-.834v13.964l-5.934.834V39.645zm31.416-9.65l-5.236.734v19.198l-5.76.81v-19.2l-5.235.737V56.71L105 54.852v3.21l5.236-.735V48.88l-2.234.314v-19.2zm5.026 23.728l16.058-2.257V46.23l-10.82 1.52v-4.363l5.514-.775v-5.235l-5.515.775v-4.364l10.82-1.52v-5.236l-16.057 2.256v24.435zm35.78-29.464l-13.194 1.853-2.583 19.562-2.023.284v8.447l5.236-.736v-3.21l9.354-1.316v3.213l5.236-.736v-8.446l-2.024.284v-19.2zm-5.236 19.933l-5.445.766 1.92-14.233 3.525-.496v13.963zm21.05-12.138l-5.76.81v-10.02l-5.237.737v15.254l10.996-1.545v3.946l-10.995 1.545v5.237l16.232-2.28V21.3l-5.236.737v10.018zm9.25 13.117l5.235-.736v-7.33l11.17-1.57V18.43l-16.406 2.307v24.435zm5.235-19.936l5.935-.834v6.633l-5.935.834v-6.634zm20.247-8.08l-5.236.734v24.436l16.058-2.256V24.605l-10.82 1.52v-8.97zm5.585 13.422v4.99l-5.587.785v-4.99l5.586-.785zm8.726-15.434V39.58l5.236-.736V14.408l-5.236.736zM4.926 31.87l7.522-1.06v-11.2l-7.52 1.058v11.2zm2.4-9.14l2.72-.382v6.4l-2.72.382v-6.4zm6.72-.943l4.305-.605-2.687 3.578 2.688 2.822-4.303.605v2.4l7.2-1.014v-2.4l-2.688-2.82 2.687-3.578v-2.4l-7.2 1.012v2.4zm16.977 7.886V25.8l-.93.132v-8.8l-6.047.85-1.184 8.966-.928.13v3.873l2.4-.336V29.14l4.287-.602v1.472l2.403-.337zm-3.328-3.404l-2.496.35.88-6.523 1.615-.227v6.4zm12.127-10.506l-7.52 1.057v11.202l7.52-1.058v-11.2zm-2.4 9.137l-2.72.383v-6.4l2.72-.38V24.9zm4.24 1.805l2.4-.336v-3.362l5.12-.72v-7.84l-7.52 1.058v11.2zm2.4-9.137l2.72-.383v3.04l-2.72.383v-3.04zm14.4-4.423l-7.52 1.057v11.2l7.52-1.058v-11.2zm-2.4 9.136l-2.72.384v-6.4l2.72-.382v6.4zm4.24 1.806l7.52-1.057v-4.48l-1.39-.925 1.39-1.316v-4.48l-7.52 1.058v11.198zm2.4-9.138l2.72-.382v1.264l-.863.938-1.857.26v-2.08zm0 4.32l1.856-.26.863.695v1.264l-2.72.382v-2.08zm12.528-3.967v6.69l2.4-.34v-11.2l-2.4.338-3.168 7.134v-6.688l-2.4.337v11.2l2.4-.336L75.23 15.3zm6.24 5.81l2.4-.337v-8.8l2.56-.36v-2.4l-7.52 1.06v2.398l2.56-.36v8.8zm13.6-4.31l-4.96.697v-2l2.528-.356v-2.398l-2.53.355v-2l4.962-.697V8l-7.36 1.034v11.2l7.36-1.035v-2.4zm4.832-7.08l1.695-.237v8.8l2.4-.337V6.744l-6.192.87-.99 8.94-.865.12v2.4l2.864-.4 1.088-8.953zm13.295-.156l-4.96.697V6.15l-2.4.336v11.2l7.36-1.034V9.564zm-2.4 5.026l-2.56.36v-2.29l2.56-.36v2.29zm6.56-2.97l2.72-.383v4.448l2.4-.338v-11.2l-2.4.338v4.353l-2.72.38V4.87l-2.4.337v11.2l2.4-.338V11.62zm18.32-9.327l-2.4.337v11.2l2.4-.338v-11.2zm-4 4.674l-4.96.697V3.552l-2.4.337v11.2l7.36-1.035V6.967zm-2.4 5.025l-2.56.36v-2.29l2.56-.358v2.288zm15.6-2.192l-4.96.697v-2l2.528-.356v-2.4l-2.527.356v-2l4.96-.696V1l-7.36 1.034v11.2l7.36-1.035V9.8z"/></svg>

<?xml version="1.0" encoding="utf-8"?>
<!-- Generator: Adobe Illustrator 15.0.0, SVG Export Plug-In . SVG Version: 6.00 Build 0)  -->
<!DOCTYPE svg PUBLIC "-//W3C//DTD SVG 1.1//EN" "http://www.w3.org/Graphics/SVG/1.1/DTD/svg11.dtd">
<svg version="1.1" id="Layer_1" xmlns="http://www.w3.org/2000/svg" xmlns:xlink="http://www.w3.org/1999/xlink" x="0px" y="0px"
	 width="223.376px" height="69.479px" viewBox="0 0 223.376 69.479" enable-background="new 0 0 223.376 69.479"
	 xml:space="preserve">
<g>
	<g>
		<path fill="#4A4A4A" d="M30.684,65.296l5.236-0.736V45.36l5.934-0.834v19.199l5.236-0.735V38.555L30.684,40.86V65.296z
			 M51.104,62.426l5.236-0.736v-7.33l11.17-1.57V35.685L51.104,37.99V62.426z M56.34,42.49l5.934-0.834v6.633l-5.934,0.834V42.49z
			 M71.35,59.58l16.406-2.306V32.84L71.35,35.145V59.58z M76.586,39.645l5.935-0.834v13.963l-5.935,0.834V39.645z M108.002,29.994
			l-5.236,0.735v19.199l-5.76,0.81V31.539l-5.235,0.736V56.71L105,54.852v3.211l5.236-0.736v-8.447l-2.234,0.314V29.994z
			 M113.028,53.723l16.058-2.257v-5.236l-10.821,1.521v-4.364l5.515-0.775v-5.235l-5.515,0.775v-4.364l10.821-1.52v-5.236
			l-16.058,2.256V53.723z M148.809,24.259l-13.195,1.854l-2.583,19.562l-2.024,0.284v8.448l5.236-0.736v-3.211l9.354-1.316v3.213
			l5.236-0.736v-8.447l-2.024,0.284V24.259z M143.572,44.193l-5.445,0.766l1.92-14.232l3.525-0.496V44.193z M164.621,32.055
			l-5.76,0.81V22.846l-5.236,0.736v15.254l10.996-1.545v3.945l-10.996,1.545v5.236l16.232-2.281V21.301l-5.236,0.736V32.055z
			 M173.871,45.172l5.236-0.736v-7.33l11.17-1.57V18.431l-16.406,2.306V45.172z M179.107,25.236l5.935-0.834v6.633l-5.935,0.834
			V25.236z M199.354,17.155l-5.236,0.735v24.436l16.058-2.256V24.605l-10.821,1.521V17.155z M204.939,30.578v4.991l-5.586,0.784
			v-4.991L204.939,30.578z M213.666,15.144v24.436l5.236-0.736V14.408L213.666,15.144z M4.927,31.869l7.521-1.058v-11.2
			l-7.521,1.057V31.869z M7.327,22.731l2.72-0.383v6.4l-2.72,0.382V22.731z M14.047,21.787l4.304-0.605l-2.688,3.578l2.688,2.822
			l-4.304,0.605v2.399l7.2-1.013v-2.399l-2.688-2.822l2.688-3.577v-2.4l-7.2,1.012V21.787z M31.023,29.673v-3.872l-0.929,0.131
			v-8.801l-6.048,0.851l-1.184,8.966l-0.928,0.131v3.872l2.399-0.337v-1.473l4.288-0.603v1.472L31.023,29.673z M27.695,26.269
			l-2.496,0.351l0.88-6.523l1.616-0.227V26.269z M39.822,15.764l-7.52,1.057v11.201l7.52-1.058V15.764z M37.423,24.901l-2.72,0.382
			v-6.399l2.72-0.382V24.901z M41.662,26.705l2.4-0.336v-3.361l5.12-0.719v-7.841l-7.521,1.058V26.705z M44.062,17.568l2.721-0.383
			v3.041l-2.721,0.382V17.568z M58.463,13.145l-7.521,1.057v11.2l7.521-1.058V13.145z M56.062,22.281l-2.72,0.383v-6.4l2.72-0.382
			V22.281z M60.303,24.086l7.52-1.057v-4.48l-1.392-0.924l1.392-1.316v-4.479l-7.52,1.058V24.086z M62.702,14.948l2.72-0.382v1.264
			l-0.863,0.938l-1.856,0.261V14.948z M62.702,19.269l1.856-0.261l0.863,0.695v1.264l-2.72,0.382V19.269z M75.23,15.301v6.688
			l2.4-0.338V10.451l-2.4,0.337l-3.168,7.134v-6.688l-2.4,0.337v11.2l2.4-0.337L75.23,15.301z M81.471,21.111l2.399-0.338v-8.8
			l2.56-0.359v-2.4l-7.52,1.058v2.399l2.561-0.36V21.111z M95.07,16.8l-4.961,0.697v-2l2.529-0.356v-2.399l-2.529,0.355v-2
			L95.07,10.4V8l-7.36,1.034v11.2l7.36-1.035V16.8z M99.902,9.721l1.695-0.238v8.8l2.4-0.337V6.744l-6.192,0.871l-0.991,8.939
			l-0.864,0.121v2.4l2.864-0.402L99.902,9.721z M113.197,9.564l-4.959,0.697V6.149l-2.4,0.337v11.2l7.359-1.034V9.564z
			 M110.798,14.59l-2.56,0.359v-2.288l2.56-0.36V14.59z M117.357,11.619l2.721-0.382v4.448l2.399-0.338v-11.2l-2.399,0.338v4.353
			l-2.721,0.381V4.867l-2.4,0.338v11.199l2.4-0.337V11.619z M135.678,2.293l-2.4,0.337v11.2l2.4-0.338V2.293z M131.678,6.967
			l-4.961,0.697V3.552l-2.399,0.337V15.09l7.36-1.035V6.967z M129.277,11.992l-2.561,0.359v-2.288l2.561-0.359V11.992z M144.877,9.8
			l-4.959,0.697v-2l2.527-0.356V5.741l-2.527,0.355v-2l4.959-0.696V1l-7.359,1.034v11.2l7.359-1.035V9.8z"/>
	</g>
</g>
</svg>
